X: 1
T: Headwood Crossing
C: Patrick Davey
R: Jig
M: 6/8
L: 1/8
K: Cmaj
|: cGE GGG | AGE GAB | cGE GGG | Add dcB |
cGE GGG | AGE GAB | cde ged | eae ged :|
|: cde ggg | eae ged | cde ged | cAG A2B | 
cde ggg | eaa gab | aaa ged | eae ged :|